src/assets/svgs/logo-white.svg

<svg width="210" height="28" viewBox="0 0 210 28" fill="none" xmlns="http://www.w3.org/2000/svg">
<g clip-path="url(#clip0_19_3381)">
<path d="M28.7955 0C25.391 0 20.2618 6.22 20.2618 6.22L15.9975 11.405L13.8628 14L14.9277 15.295L10.6633 20.48L6.60897 15.555C5.85908 14.645 5.85908 13.355 6.60897 12.445L14.6327 2.695C15.5276 1.61 14.7327 0 13.2979 0H3.1995C1.43478 0 0 1.395 0 3.11V24.89C0 26.61 1.52476 28 3.1995 28C6.60397 28 11.7332 21.78 11.7332 21.78L15.9975 16.595L18.1322 14L17.0673 12.705L21.3317 7.52L25.386 12.445C26.1359 13.355 26.1359 14.645 25.386 15.555L17.3673 25.305C16.4724 26.39 17.2673 28 18.7021 28H28.8005C30.5652 28 32 26.605 32 24.89V3.11C32 1.39 30.4752 0 28.8005 0H28.7955Z" fill="#FAFBFC"/>
<path d="M50.495 27.75C46.75 27.75 43.9 26.71 41.94 24.625C39.98 22.545 39 19.59 39 15.755C39 13.85 39.3 12.15 39.895 10.655C40.495 9.15998 41.31 7.89498 42.355 6.86498C43.395 5.83498 44.635 5.05498 46.075 4.51998C47.515 3.98998 49.075 3.72498 50.76 3.72498C51.735 3.72498 52.62 3.79498 53.42 3.93998C54.215 4.08498 54.915 4.24998 55.515 4.43998C56.115 4.62998 56.61 4.81998 57.01 5.01998C57.41 5.21998 57.695 5.37498 57.875 5.48498L56.38 9.66998C55.67 9.29498 54.845 8.96998 53.905 8.70498C52.965 8.43998 51.895 8.30498 50.7 8.30498C49.905 8.30498 49.12 8.43998 48.355 8.70498C47.59 8.96998 46.915 9.39998 46.33 9.98498C45.745 10.57 45.27 11.33 44.92 12.26C44.565 13.19 44.39 14.32 44.39 15.65C44.39 16.715 44.505 17.705 44.74 18.625C44.97 19.545 45.35 20.335 45.87 21C46.39 21.665 47.07 22.19 47.915 22.58C48.755 22.97 49.775 23.16 50.97 23.16C51.725 23.16 52.4 23.115 52.995 23.025C53.595 22.935 54.125 22.83 54.59 22.71C55.055 22.59 55.465 22.45 55.82 22.295C56.175 22.14 56.495 21.995 56.785 21.865L58.215 26.02C57.485 26.465 56.455 26.86 55.125 27.215C53.795 27.57 52.255 27.745 50.505 27.745L50.495 27.75Z" fill="#FAFBFC"/>
<path d="M77.145 18.515C77.145 19.89 76.945 21.145 76.545 22.285C76.145 23.425 75.57 24.4 74.815 25.21C74.06 26.02 73.16 26.645 72.105 27.085C71.055 27.53 69.875 27.75 68.565 27.75C67.255 27.75 66.11 27.53 65.06 27.085C64.005 26.64 63.105 26.015 62.35 25.21C61.595 24.4 61.01 23.425 60.59 22.285C60.17 21.145 59.96 19.89 59.96 18.515C59.96 17.14 60.175 15.89 60.61 14.76C61.04 13.63 61.64 12.665 62.405 11.87C63.17 11.075 64.075 10.455 65.13 10.01C66.18 9.56497 67.33 9.34497 68.57 9.34497C69.81 9.34497 70.99 9.56497 72.045 10.01C73.095 10.455 74 11.075 74.755 11.87C75.51 12.665 76.095 13.63 76.515 14.76C76.935 15.89 77.145 17.14 77.145 18.515ZM72.095 18.515C72.095 16.985 71.79 15.785 71.18 14.91C70.57 14.035 69.7 13.6 68.57 13.6C67.44 13.6 66.565 14.035 65.945 14.91C65.325 15.785 65.015 16.985 65.015 18.515C65.015 20.045 65.325 21.255 65.945 22.155C66.565 23.05 67.44 23.5 68.57 23.5C69.7 23.5 70.57 23.05 71.18 22.155C71.79 21.26 72.095 20.045 72.095 18.515Z" fill="#FAFBFC"/>
<path d="M96.3848 26.72C95.9398 26.855 95.4348 26.98 94.8548 27.1C94.2798 27.22 93.6748 27.325 93.0448 27.415C92.4148 27.505 91.7698 27.575 91.1198 27.63C90.4648 27.685 89.8398 27.715 89.2398 27.715C87.7998 27.715 86.5148 27.505 85.3848 27.085C84.2548 26.665 83.3048 26.06 82.5298 25.275C81.7548 24.49 81.1598 23.535 80.7498 22.415C80.3398 21.295 80.1348 20.04 80.1348 18.645C80.1348 17.25 80.3098 15.95 80.6648 14.805C81.0198 13.665 81.5298 12.695 82.1948 11.895C82.8598 11.1 83.6748 10.49 84.6348 10.07C85.5998 9.65 86.6998 9.44 87.9398 9.44C88.6248 9.44 89.2398 9.505 89.7848 9.64C90.3248 9.775 90.8748 9.96 91.4298 10.205V2.295L96.3798 1.5V26.72H96.3848ZM85.1898 18.415C85.1898 19.945 85.5348 21.175 86.2198 22.105C86.9048 23.035 87.9248 23.5 89.2748 23.5C89.7198 23.5 90.1298 23.485 90.5048 23.45C90.8798 23.415 91.1898 23.38 91.4348 23.335V14.325C91.1248 14.125 90.7198 13.96 90.2248 13.825C89.7248 13.69 89.2198 13.625 88.7148 13.625C86.3648 13.625 85.1948 15.22 85.1948 18.41L85.1898 18.415Z" fill="#FAFBFC"/>
<path d="M100.205 18.68C100.205 17.13 100.445 15.77 100.92 14.61C101.395 13.445 102.02 12.48 102.8 11.7C103.575 10.925 104.465 10.34 105.475 9.94003C106.485 9.54003 107.52 9.34003 108.58 9.34003C111.06 9.34003 113.02 10.1 114.46 11.615C115.9 13.135 116.62 15.365 116.62 18.31C116.62 18.6 116.61 18.915 116.585 19.255C116.565 19.6 116.54 19.905 116.52 20.17H105.29C105.4 21.19 105.875 21.995 106.72 22.595C107.56 23.195 108.69 23.49 110.11 23.49C111.02 23.49 111.91 23.405 112.785 23.24C113.66 23.075 114.375 22.87 114.93 22.625L115.595 26.645C115.33 26.78 114.975 26.91 114.53 27.045C114.085 27.18 113.595 27.295 113.05 27.395C112.505 27.495 111.925 27.58 111.305 27.645C110.685 27.71 110.065 27.745 109.445 27.745C107.87 27.745 106.505 27.51 105.34 27.045C104.175 26.58 103.215 25.945 102.45 25.135C101.685 24.325 101.12 23.37 100.755 22.26C100.39 21.155 100.205 19.955 100.205 18.67V18.68ZM111.835 16.785C111.815 16.365 111.74 15.955 111.62 15.555C111.5 15.155 111.31 14.8 111.055 14.49C110.8 14.18 110.48 13.925 110.09 13.725C109.7 13.525 109.22 13.425 108.645 13.425C108.07 13.425 107.615 13.52 107.215 13.705C106.815 13.895 106.485 14.145 106.22 14.455C105.955 14.765 105.75 15.125 105.605 15.535C105.46 15.945 105.355 16.36 105.29 16.78H111.835V16.785Z" fill="#FAFBFC"/>
<path d="M127.055 23.33C127.785 23.33 128.39 23.27 128.865 23.145C129.34 23.025 129.725 22.855 130.01 22.645C130.3 22.435 130.495 22.185 130.61 21.895C130.72 21.605 130.775 21.285 130.775 20.93C130.775 20.175 130.42 19.55 129.71 19.055C129 18.555 127.78 18.02 126.055 17.445C125.3 17.18 124.55 16.875 123.795 16.53C123.04 16.185 122.365 15.755 121.77 15.235C121.17 14.715 120.685 14.085 120.31 13.34C119.935 12.6 119.745 11.695 119.745 10.63C119.745 9.56497 119.945 8.60997 120.345 7.75497C120.745 6.89997 121.31 6.17497 122.04 5.57997C122.77 4.97997 123.655 4.52497 124.7 4.19997C125.74 3.87997 126.915 3.71997 128.22 3.71997C129.77 3.71997 131.11 3.88497 132.24 4.21997C133.37 4.54997 134.3 4.91997 135.03 5.31497L133.535 9.39997C132.89 9.06997 132.18 8.77497 131.39 8.51997C130.605 8.26497 129.655 8.13997 128.55 8.13997C127.31 8.13997 126.42 8.30997 125.875 8.65497C125.33 8.99997 125.06 9.52497 125.06 10.235C125.06 10.655 125.16 11.01 125.36 11.3C125.56 11.59 125.84 11.85 126.205 12.08C126.57 12.315 126.99 12.525 127.465 12.71C127.94 12.9 128.465 13.09 129.045 13.29C130.24 13.735 131.28 14.17 132.17 14.605C133.055 15.035 133.79 15.54 134.38 16.115C134.965 16.69 135.405 17.365 135.69 18.14C135.98 18.915 136.12 19.855 136.12 20.965C136.12 23.115 135.365 24.78 133.86 25.965C132.355 27.15 130.085 27.745 127.05 27.745C126.03 27.745 125.11 27.685 124.29 27.56C123.47 27.44 122.745 27.29 122.115 27.11C121.485 26.935 120.94 26.745 120.485 26.545C120.03 26.345 119.65 26.16 119.34 25.98L120.8 21.86C121.485 22.235 122.335 22.575 123.34 22.875C124.345 23.175 125.585 23.325 127.045 23.325L127.055 23.33Z" fill="#FAFBFC"/>
<path d="M139.615 5.45497L144.565 4.65997V9.80997H150.515V13.93H144.565V20.075C144.565 21.115 144.75 21.945 145.115 22.565C145.48 23.185 146.215 23.495 147.325 23.495C147.855 23.495 148.405 23.445 148.97 23.345C149.535 23.245 150.05 23.105 150.515 22.93L151.215 26.785C150.615 27.03 149.95 27.24 149.22 27.415C148.49 27.59 147.59 27.68 146.53 27.68C145.18 27.68 144.06 27.495 143.175 27.13C142.29 26.765 141.58 26.255 141.05 25.6C140.52 24.945 140.145 24.155 139.935 23.225C139.725 22.295 139.62 21.265 139.62 20.135V5.45497H139.615Z" fill="#FAFBFC"/>
<path d="M159.95 4.75502C159.95 5.66502 159.655 6.38002 159.07 6.90002C158.485 7.42002 157.79 7.68002 156.995 7.68002C156.2 7.68002 155.505 7.42002 154.92 6.90002C154.335 6.38002 154.04 5.66502 154.04 4.75502C154.04 3.84502 154.335 3.13502 154.92 2.61002C155.505 2.09002 156.2 1.83002 156.995 1.83002C157.79 1.83002 158.485 2.09002 159.07 2.61002C159.655 3.13002 159.95 3.84502 159.95 4.75502ZM159.485 27.285H154.535V9.80502H159.485V27.285Z" fill="#FAFBFC"/>
<path d="M163.97 5.45497L168.92 4.65997V9.80997H174.87V13.93H168.92V20.075C168.92 21.115 169.105 21.945 169.47 22.565C169.835 23.185 170.57 23.495 171.68 23.495C172.21 23.495 172.76 23.445 173.325 23.345C173.89 23.245 174.405 23.105 174.87 22.93L175.57 26.785C174.97 27.03 174.305 27.24 173.575 27.415C172.845 27.59 171.945 27.68 170.885 27.68C169.535 27.68 168.415 27.495 167.53 27.13C166.645 26.765 165.935 26.255 165.405 25.6C164.875 24.945 164.5 24.155 164.29 23.225C164.08 22.295 163.975 21.265 163.975 20.135V5.45497H163.97Z" fill="#FAFBFC"/>
<path d="M177.39 18.545C177.39 17.28 177.595 16.09 178.005 14.975C178.415 13.855 179.005 12.88 179.785 12.05C180.56 11.22 181.5 10.56 182.61 10.075C183.72 9.58997 184.98 9.34497 186.4 9.34497C187.33 9.34497 188.185 9.42997 188.96 9.59497C189.735 9.75997 190.49 9.99997 191.22 10.31L190.19 14.265C189.725 14.09 189.215 13.935 188.66 13.8C188.105 13.665 187.485 13.6 186.8 13.6C185.34 13.6 184.245 14.055 183.525 14.96C182.805 15.87 182.445 17.065 182.445 18.55C182.445 20.125 182.785 21.34 183.46 22.205C184.135 23.07 185.315 23.5 187 23.5C187.6 23.5 188.24 23.445 188.925 23.335C189.61 23.225 190.245 23.045 190.82 22.805L191.52 26.86C190.945 27.105 190.225 27.315 189.36 27.49C188.495 27.665 187.545 27.755 186.505 27.755C184.91 27.755 183.535 27.515 182.385 27.04C181.235 26.565 180.285 25.915 179.545 25.095C178.8 24.275 178.26 23.305 177.915 22.19C177.57 21.07 177.4 19.86 177.4 18.55L177.39 18.545Z" fill="#FAFBFC"/>
<path d="M194.835 27.285V2.295L199.785 1.5V9.875C200.12 9.765 200.545 9.66 201.065 9.56C201.585 9.46 202.09 9.41 202.575 9.41C203.995 9.41 205.17 9.605 206.115 9.99C207.055 10.38 207.81 10.925 208.375 11.635C208.94 12.345 209.34 13.185 209.57 14.16C209.805 15.135 209.92 16.22 209.92 17.415V27.285H204.97V18.015C204.97 16.42 204.765 15.29 204.355 14.625C203.945 13.96 203.185 13.63 202.08 13.63C201.635 13.63 201.22 13.67 200.835 13.745C200.445 13.825 200.1 13.905 199.79 13.995V27.285H194.84H194.835Z" fill="#FAFBFC"/>
</g>
<defs>
<clipPath id="clip0_19_3381">
<rect width="210" height="28" fill="white"/>
</clipPath>
</defs>
</svg>

<svg fill="none" height="28" viewBox="0 0 210 28" width="210" xmlns="http://www.w3.org/2000/svg" xmlns:xlink="http://www.w3.org/1999/xlink"><clipPath id="a"><path d="m0 0h210v28h-210z"/></clipPath><g clip-path="url(#a)" fill="#fafbfc"><path d="m28.7955 0c-3.4045 0-8.5337 6.22-8.5337 6.22l-4.2643 5.185-2.1347 2.595 1.0649 1.295-4.2644 5.185-4.05433-4.925c-.74989-.91-.74989-2.2 0-3.11l8.02373-9.75c.8949-1.085.1-2.695-1.3348-2.695h-10.0984c-1.76472 0-3.1995 1.395-3.1995 3.11v21.78c0 1.72 1.52476 3.11 3.1995 3.11 3.40447 0 8.5337-6.22 8.5337-6.22l4.2643-5.185 2.1347-2.595-1.0649-1.295 4.2644-5.185 4.0543 4.925c.7499.91.7499 2.2 0 3.11l-8.0187 9.75c-.8949 1.085-.1 2.695 1.3348 2.695h10.0984c1.7647 0 3.1995-1.395 3.1995-3.11v-21.78c0-1.72-1.5248-3.11-3.1995-3.11z"/><path d="m50.495 27.75c-3.745 0-6.595-1.04-8.555-3.125-1.96-2.08-2.94-5.035-2.94-8.87 0-1.905.3-3.605.895-5.1.6-1.49502 1.415-2.76002 2.46-3.79002 1.04-1.03 2.28-1.81 3.72-2.345 1.44-.53 3-.795 4.685-.795.975 0 1.86.07 2.66.215.795.145 1.495.31 2.095.5s1.095.38 1.495.58.685.355.865.465l-1.495 4.185c-.71-.375-1.535-.7-2.475-.965s-2.01-.4-3.205-.4c-.795 0-1.58.135-2.345.4s-1.44.695-2.025 1.28c-.585.58502-1.06 1.34502-1.41 2.27502-.355.93-.53 2.06-.53 3.39 0 1.065.115 2.055.35 2.975.23.92.61 1.71 1.13 2.375s1.2 1.19 2.045 1.58c.84.39 1.86.58 3.055.58.755 0 1.43-.045 2.025-.135.6-.09 1.13-.195 1.595-.315s.875-.26 1.23-.415.675-.3.965-.43l1.43 4.155c-.73.445-1.76.84-3.09 1.195s-2.87.53-4.62.53z"/><path d="m77.145 18.515c0 1.375-.2 2.63-.6 3.77s-.975 2.115-1.73 2.925-1.655 1.435-2.71 1.875c-1.05.445-2.23.665-3.54.665s-2.455-.22-3.505-.665c-1.055-.445-1.955-1.07-2.71-1.875-.755-.81-1.34-1.785-1.76-2.925s-.63-2.395-.63-3.77.215-2.625.65-3.755c.43-1.13 1.03-2.095 1.795-2.89s1.67-1.415 2.725-1.86c1.05-.44503 2.2-.66503 3.44-.66503s2.42.22 3.475.66503c1.05.445 1.955 1.065 2.71 1.86s1.34 1.76 1.76 2.89.63 2.38.63 3.755zm-5.05 0c0-1.53-.305-2.73-.915-3.605s-1.48-1.31-2.61-1.31-2.005.435-2.625 1.31-.93 2.075-.93 3.605.31 2.74.93 3.64c.62.895 1.495 1.345 2.625 1.345s2-.45 2.61-1.345.915-2.11.915-3.64z"/><path d="m96.3848 26.72c-.445.135-.95.26-1.53.38-.575.12-1.18.225-1.81.315s-1.275.16-1.925.215c-.655.055-1.28.085-1.88.085-1.44 0-2.725-.21-3.855-.63s-2.08-1.025-2.855-1.81-1.37-1.74-1.78-2.86-.615-2.375-.615-3.77.175-2.695.53-3.84c.355-1.14.865-2.11 1.53-2.91.665-.795 1.48-1.405 2.44-1.825.965-.42 2.065-.63 3.305-.63.685 0 1.3.065 1.845.2.54.135 1.09.32 1.645.565v-7.91l4.95-.795v25.22zm-11.195-8.305c0 1.53.345 2.76 1.03 3.69s1.705 1.395 3.055 1.395c.445 0 .855-.015 1.23-.05s.685-.07.93-.115v-9.01c-.31-.2-.715-.365-1.21-.5-.5-.135-1.005-.2-1.51-.2-2.35 0-3.52 1.595-3.52 4.785z"/><path d="m100.205 18.68c0-1.55.24-2.91.715-4.07.475-1.165 1.1-2.13 1.88-2.91.775-.775 1.665-1.36 2.675-1.75997 1.01-.4 2.045-.6 3.105-.6 2.48 0 4.44.75997 5.88 2.27497 1.44 1.52 2.16 3.75 2.16 6.695 0 .29-.01.605-.035.945-.02.345-.045.65-.065.915h-11.23c.11 1.02.585 1.825 1.43 2.425.84.6 1.97.895 3.39.895.91 0 1.8-.085 2.675-.25s1.59-.37 2.145-.615l.665 4.02c-.265.135-.62.265-1.065.4s-.935.25-1.48.35-1.125.185-1.745.25-1.24.1-1.86.1c-1.575 0-2.94-.235-4.105-.7s-2.125-1.1-2.89-1.91-1.33-1.765-1.695-2.875c-.365-1.105-.55-2.305-.55-3.59zm11.63-1.895c-.02-.42-.095-.83-.215-1.23s-.31-.755-.565-1.065-.575-.565-.965-.765-.87-.3-1.445-.3-1.03.095-1.43.28c-.4.19-.73.44-.995.75s-.47.67-.615 1.08-.25.825-.315 1.245h6.545z"/><path d="m127.055 23.33c.73 0 1.335-.06 1.81-.185.475-.12.86-.29 1.145-.5.29-.21.485-.46.6-.75.11-.29.165-.61.165-.965 0-.755-.355-1.38-1.065-1.875-.71-.5-1.93-1.035-3.655-1.61-.755-.265-1.505-.57-2.26-.915s-1.43-.775-2.025-1.295c-.6-.52-1.085-1.15-1.46-1.895-.375-.74-.565-1.645-.565-2.71 0-1.06503.2-2.02003.6-2.87503s.965-1.58 1.695-2.175c.73-.6 1.615-1.055 2.66-1.38 1.04-.32 2.215-.48 3.52-.48 1.55 0 2.89.165 4.02.5 1.13.33 2.06.7 2.79 1.095l-1.495 4.085c-.645-.33-1.355-.625-2.145-.88-.785-.255-1.735-.38-2.84-.38-1.24 0-2.13.17-2.675.515s-.815.87-.815 1.58003c0 .42.1.775.3 1.065s.48.55.845.78c.365.235.785.445 1.26.63.475.19 1 .38 1.58.58 1.195.445 2.235.88 3.125 1.315.885.43 1.62.935 2.21 1.51.585.575 1.025 1.25 1.31 2.025.29.775.43 1.715.43 2.825 0 2.15-.755 3.815-2.26 5s-3.775 1.78-6.81 1.78c-1.02 0-1.94-.06-2.76-.185-.82-.12-1.545-.27-2.175-.45-.63-.175-1.175-.365-1.63-.565s-.835-.385-1.145-.565l1.46-4.12c.685.375 1.535.715 2.54 1.015s2.245.45 3.705.45z"/><path d="m139.615 5.45497 4.95-.795v5.15h5.95v4.12003h-5.95v6.145c0 1.04.185 1.87.55 2.49s1.1.93 2.21.93c.53 0 1.08-.05 1.645-.15s1.08-.24 1.545-.415l.7 3.855c-.6.245-1.265.455-1.995.63s-1.63.265-2.69.265c-1.35 0-2.47-.185-3.355-.55s-1.595-.875-2.125-1.53-.905-1.445-1.115-2.375-.315-1.96-.315-3.09v-14.68003z"/><path d="m159.95 4.75502c0 .91-.295 1.625-.88 2.145s-1.28.78-2.075.78-1.49-.26-2.075-.78-.88-1.235-.88-2.145.295-1.62.88-2.145c.585-.52 1.28-.78 2.075-.78s1.49.26 2.075.78.88 1.235.88 2.145zm-.465 22.52998h-4.95v-17.47998h4.95z"/><path d="m163.97 5.45497 4.95-.795v5.15h5.95v4.12003h-5.95v6.145c0 1.04.185 1.87.55 2.49s1.1.93 2.21.93c.53 0 1.08-.05 1.645-.15s1.08-.24 1.545-.415l.7 3.855c-.6.245-1.265.455-1.995.63s-1.63.265-2.69.265c-1.35 0-2.47-.185-3.355-.55s-1.595-.875-2.125-1.53-.905-1.445-1.115-2.375-.315-1.96-.315-3.09v-14.68003z"/><path d="m177.39 18.545c0-1.265.205-2.455.615-3.57.41-1.12 1-2.095 1.78-2.925.775-.83 1.715-1.49 2.825-1.975 1.11-.48503 2.37-.73003 3.79-.73003.93 0 1.785.085 2.56.25s1.53.405 2.26.71503l-1.03 3.955c-.465-.175-.975-.33-1.53-.465s-1.175-.2-1.86-.2c-1.46 0-2.555.455-3.275 1.36-.72.91-1.08 2.105-1.08 3.59 0 1.575.34 2.79 1.015 3.655s1.855 1.295 3.54 1.295c.6 0 1.24-.055 1.925-.165s1.32-.29 1.895-.53l.7 4.055c-.575.245-1.295.455-2.16.63s-1.815.265-2.855.265c-1.595 0-2.97-.24-4.12-.715s-2.1-1.125-2.84-1.945c-.745-.82-1.285-1.79-1.63-2.905-.345-1.12-.515-2.33-.515-3.64z"/><path d="m194.835 27.285v-24.99l4.95-.795v8.375c.335-.11.76-.215 1.28-.315s1.025-.15 1.51-.15c1.42 0 2.595.195 3.54.58.94.39 1.695.935 2.26 1.645s.965 1.55 1.195 2.525c.235.975.35 2.06.35 3.255v9.87h-4.95v-9.27c0-1.595-.205-2.725-.615-3.39s-1.17-.995-2.275-.995c-.445 0-.86.04-1.245.115-.39.08-.735.16-1.045.25v13.29h-4.95z"/></g></svg>
